MODULE Prueba_7
!# NX CAM Robotics 1855.2900 to Abb-Rapid
!# -------------------------------------
!# CREATED : 08/05/2026 18:44:00 by USUARIO
!# CELL    : 7.prt
!# ROBOT   : ABB_IRB_6400_MACHINE

!# --------------
!# -- WobjData --
!# --------------
PERS wobjdata MCSMILL:=[FALSE,TRUE,"",[[0,0,0],[1,0,0,0]],[[1750.000,0.000,1000.000],[1.000000,0.000000,0.000000,0.000000]]];

!# --------------
!# -- ToolData --
!# --------------
!#WARNING: Payload information missing from Tool/Edit/Tool/Description
PERS tooldata FRESA:=[TRUE,[[193.350,0.000,50.700],[0.498768,0.501229,0.498768,0.501229]],[0,[0,0,0],[1,0,0,0],0,0,0]];

PROC ESTRELLA()
  MoveAbsJ [[0.000,0.000,0.000,0.000,0.000,0.000],[9e+09,0.000,9e+09,9e+09,9e+09,9e+09]],v1500,z100,FRESA\Wobj:=MCSMILL;
  MoveAbsJ [[-0.020,8.691,-7.600,-0.049,43.909,-0.096],[9e+09,0.000,9e+09,9e+09,9e+09,9e+09]],v1500,z100,FRESA\Wobj:=MCSMILL;
  MoveJ [[0.000,268.501,50.000],[-0.000000,0.707107,0.707107,0.000000],[-1,-1,-1,-1],[9e+09,0.000,9e+09,9e+09,9e+09,9e+09]],v1500,z100,FRESA\Wobj:=MCSMILL;
  MoveJ [[0.000,268.501,5.000],[-0.000000,0.707107,0.707107,0.000000],[-1,-1,-1,-1],[9e+09,0.000,9e+09,9e+09,9e+09,9e+09]],v500,z50,FRESA\Wobj:=MCSMILL;
  MoveL [[0.000,268.501,0.000],[-0.000000,0.707107,0.707107,0.000000],[-1,-1,-1,-1],[9e+09,0.000,9e+09,9e+09,9e+09,9e+09]],v200,z30,FRESA\Wobj:=MCSMILL;
  MoveL [[-55.560,76.472,0.000],[-0.000000,0.707107,0.707107,0.000000],[-1,-1,-1,-1],[9e+09,0.000,9e+09,9e+09,9e+09,9e+09]],v100,z20,FRESA\Wobj:=MCSMILL;
  MoveL [[-255.360,82.971,0.000],[-0.000000,0.707107,0.707107,0.000000],[-1,-1,-1,-1],[9e+09,0.000,9e+09,9e+09,9e+09,9e+09]],v100,z20,FRESA\Wobj:=MCSMILL;
  MoveL [[-89.898,-29.210,0.000],[-0.000000,0.707107,0.707107,0.000000],[-1,-1,-1,-1],[9e+09,0.000,9e+09,9e+09,9e+09,9e+09]],v100,z20,FRESA\Wobj:=MCSMILL;
  MoveL [[-157.821,-217.222,0.000],[-0.000000,0.707107,0.707107,0.000000],[-1,-1,-1,-1],[9e+09,0.000,9e+09,9e+09,9e+09,9e+09]],v100,z20,FRESA\Wobj:=MCSMILL;
  MoveL [[-0.000,-94.525,0.000],[-0.000000,0.707107,0.707107,0.000000],[-1,-1,-1,-1],[9e+09,0.000,9e+09,9e+09,9e+09,9e+09]],v100,z20,FRESA\Wobj:=MCSMILL;
  MoveL [[157.821,-217.222,0.000],[-0.000000,0.707107,0.707107,0.000000],[-1,-1,-1,-1],[9e+09,0.000,9e+09,9e+09,9e+09,9e+09]],v100,z20,FRESA\Wobj:=MCSMILL;
  MoveL [[89.898,-29.210,0.000],[-0.000000,0.707107,0.707107,0.000000],[-1,-1,-1,-1],[9e+09,0.000,9e+09,9e+09,9e+09,9e+09]],v100,z20,FRESA\Wobj:=MCSMILL;
  MoveL [[255.360,82.971,0.000],[-0.000000,0.707107,0.707107,0.000000],[-1,-1,-1,-1],[9e+09,0.000,9e+09,9e+09,9e+09,9e+09]],v100,z20,FRESA\Wobj:=MCSMILL;
  MoveL [[55.560,76.472,0.000],[-0.000000,0.707107,0.707107,0.000000],[-1,-1,-1,-1],[9e+09,0.000,9e+09,9e+09,9e+09,9e+09]],v100,z20,FRESA\Wobj:=MCSMILL;
  MoveL [[0.000,268.501,0.000],[-0.000000,0.707107,0.707107,0.000000],[-1,-1,-1,-1],[9e+09,0.000,9e+09,9e+09,9e+09,9e+09]],v100,z20,FRESA\Wobj:=MCSMILL;
  MoveL [[0.000,268.501,5.000],[-0.000000,0.707107,0.707107,0.000000],[-1,-1,-1,-1],[9e+09,0.000,9e+09,9e+09,9e+09,9e+09]],v300,z30,FRESA\Wobj:=MCSMILL;
  MoveJ [[0.000,268.501,50.000],[-0.000000,0.707107,0.707107,0.000000],[-1,-1,-1,-1],[9e+09,0.000,9e+09,9e+09,9e+09,9e+09]],v600,z50,FRESA\Wobj:=MCSMILL;
ENDPROC

PROC HEXAGONO()
  MoveJ [[0.000,211.637,50.000],[-0.000000,0.707107,0.707107,0.000000],[-1,-1,-1,-1],[9e+09,0.000,9e+09,9e+09,9e+09,9e+09]],v1500,z100,FRESA\Wobj:=MCSMILL;
  MoveJ [[0.000,211.637,5.000],[-0.000000,0.707107,0.707107,0.000000],[-1,-1,-1,-1],[9e+09,0.000,9e+09,9e+09,9e+09,9e+09]],v500,z50,FRESA\Wobj:=MCSMILL;
  MoveL [[0.000,211.637,0.000],[-0.000000,0.707107,0.707107,0.000000],[-1,-1,-1,-1],[9e+09,0.000,9e+09,9e+09,9e+09,9e+09]],v200,z30,FRESA\Wobj:=MCSMILL;
  MoveL [[-183.283,105.819,0.000],[-0.000000,0.707107,0.707107,0.000000],[-1,-1,-1,-1],[9e+09,0.000,9e+09,9e+09,9e+09,9e+09]],v100,z20,FRESA\Wobj:=MCSMILL;
  MoveL [[-183.283,-105.819,0.000],[-0.000000,0.707107,0.707107,0.000000],[-1,-1,-1,-1],[9e+09,0.000,9e+09,9e+09,9e+09,9e+09]],v100,z20,FRESA\Wobj:=MCSMILL;
  MoveL [[-0.000,-211.637,0.000],[-0.000000,0.707107,0.707107,0.000000],[-1,-1,-1,-1],[9e+09,0.000,9e+09,9e+09,9e+09,9e+09]],v100,z20,FRESA\Wobj:=MCSMILL;
  MoveL [[183.283,-105.819,0.000],[-0.000000,0.707107,0.707107,0.000000],[-1,-1,-1,-1],[9e+09,0.000,9e+09,9e+09,9e+09,9e+09]],v100,z20,FRESA\Wobj:=MCSMILL;
  MoveL [[183.283,105.819,0.000],[-0.000000,0.707107,0.707107,0.000000],[-1,-1,-1,-1],[9e+09,0.000,9e+09,9e+09,9e+09,9e+09]],v100,z20,FRESA\Wobj:=MCSMILL;
  MoveL [[0.000,211.637,0.000],[-0.000000,0.707107,0.707107,0.000000],[-1,-1,-1,-1],[9e+09,0.000,9e+09,9e+09,9e+09,9e+09]],v100,z20,FRESA\Wobj:=MCSMILL;
  MoveL [[0.000,211.637,5.000],[-0.000000,0.707107,0.707107,0.000000],[-1,-1,-1,-1],[9e+09,0.000,9e+09,9e+09,9e+09,9e+09]],v300,z30,FRESA\Wobj:=MCSMILL;
  MoveJ [[0.000,211.637,50.000],[-0.000000,0.707107,0.707107,0.000000],[-1,-1,-1,-1],[9e+09,0.000,9e+09,9e+09,9e+09,9e+09]],v600,z50,FRESA\Wobj:=MCSMILL;
  MoveAbsJ [[-0.021,2.693,4.072,-0.054,38.234,-0.090],[9e+09,0.000,9e+09,9e+09,9e+09,9e+09]],v1500,z100,FRESA\Wobj:=MCSMILL;
  MoveAbsJ [[0.000,0.000,0.000,0.000,0.000,0.000],[9e+09,0.000,9e+09,9e+09,9e+09,9e+09]],v1500,z100,FRESA\Wobj:=MCSMILL;
ENDPROC

PROC Main()
  ESTRELLA;
  HEXAGONO;
ENDPROC

ENDMODULE
